Adwaita++/apps/scalable/pocket.svg

<svg height="64" width="64" xmlns="http://www.w3.org/2000/svg">
  <rect height="56" opacity=".2" rx="3" width="56" x="4" y="4"/>
  <path d="m7 3c-1.662 0-3 1.338-3 3v23 2 25c0 1.662 1.338 3 3 3h25 25c1.662 0 3-1.338 3-3v-25-25c0-1.662-1.338-3-3-3h-23-2z" fill="#fbfbfb"/>
  <g enable-background="new">
    <g transform="matrix(.99999999294 0 0 .99999999294 .00000017221 -.00000006644)">
      <path d="m14.117188 3h-7.117188c-.831 0-1.5807969.3347031-2.1230469.8769531s-.8769531 1.2920469-.8769531 2.1230469v1.4492188h9.953125z" fill="#82ecb8"/>
      <path d="m31.960938 3h-18.060547l.052734 4.4492188h17.923828z" fill="#4fbab5"/>
      <path d="m49.908203 3h-15.908203-2-.078125l-.044922 4.4492188h17.925781z" fill="#ed4154"/>
      <path d="m60 6c0-.831-.334703-1.5807969-.876953-2.1230469s-1.292047-.8769531-2.123047-.8769531h-7.197266v4.4492188h10.197266z" fill="#fab649"/>
    </g>
    <path clip-rule="evenodd" d="m71.210426 62.665906c-.423969-.393872-.745871-.684369-1.058613-.984026-10.137296-9.738189-20.262815-19.488156-30.414505-29.210642-4.650568-4.452977-11.787371-4.289409-16.218103.314051-4.363997 4.534106-4.303804 11.715399.285263 16.150057 13.1548 12.708587 26.347547 25.379225 39.562541 38.02631 4.403252 4.213514 11.182823 4.170332 15.648886.01047 1.78878-1.665777 3.533072-3.378662 5.295682-5.073228 11.29928-10.859612 22.592023-21.727076 33.903083-32.573603 2.71785-2.606621 4.14155-5.75498 3.78432-9.503961-.45407-4.767026-2.96778-8.198031-7.48095-9.841563-4.49878-1.638298-8.5906-.649038-12.06217 2.666814-5.6817 5.426534-11.337233 10.883165-17.003233 16.32802-4.714687 4.53149-9.431991 9.066906-14.242201 13.691303zm-.02879-76.471352c22.766061 0 45.532124-.0065 68.298184.0039 7.05437.0039 13.11817 4.5550441 14.87554 11.168429.27741 1.044219.45145 2.149939.45276 3.22818.0105 17.788358.0981 35.578023-.0628 53.36507-.16357 18.173069-5.66077 34.62671-16.84752 48.993227-12.44819 15.98913-28.50273 26.51899-48.289233 31.09236-45.432675 10.49845-88.833177-18.82473-99.546234-59.865929-1.427622-5.471026-2.401179-11.023181-2.448287-16.673477-.157025-18.922865-.274794-37.845728-.266943-56.767286.0039-7.965112 7.109324-14.534006 15.4054977-14.540549 22.8092423-.01439 45.6197943-.0039 68.4290383-.0039z" fill="#f43b53" fill-rule="evenodd" transform="matrix(.23881368753 0 0 .23881368753 15.02177377804 16.38677866994)"/>
  </g>
  <path d="m7 3c-1.662 0-3 1.338-3 3v1c0-1.662 1.338-3 3-3h50c1.662 0 3 1.338 3 3v-1c0-1.662-1.338-3-3-3z" fill="#fff" opacity=".2"/>
</svg>

<svg xmlns="http://www.w3.org/2000/svg" width="64" height="64" version="1">
 <defs>
  <filter id="filter4569" width="1.023" height="1.025" x="-.01" y="-.01" style="color-interpolation-filters:sRGB">
   <feGaussianBlur id="feGaussianBlur15" stdDeviation="1.16"/>
  </filter>
  <filter id="filter910" width="1.046" height="1.05" x="-.02" y="-.03" style="color-interpolation-filters:sRGB">
   <feGaussianBlur id="feGaussianBlur12" stdDeviation="2.32"/>
  </filter>
  <linearGradient id="linearGradient1108" x1="296" x2="296" y1="-212" y2="202.4" gradientUnits="userSpaceOnUse">
   <stop style="stop-color:#ffffff" id="stop2" offset="0"/>
   <stop style="stop-color:#ffffff;stop-opacity:.09803922" id="stop4" offset=".135"/>
   <stop style="stop-color:#ffffff;stop-opacity:0" id="stop6" offset="1"/>
  </linearGradient>
  <clipPath id="clipPath1082-3-3675">
   <path style="fill:#8c59d9" d="M 361.9375,-212 C 507.2348,-212 528,-191.28677 528,-46.125 V 70.125 C 528,215.28618 507.2348,236 361.9375,236 H 214.0625 C 68.7652,236 48,215.28618 48,70.125 V -46.125 C 48,-191.28677 68.7652,-212 214.0625,-212 Z"/>
  </clipPath>
  <filter id="filter4569-5" width="1.023" height="1.025" x="-.01" y="-.01" style="color-interpolation-filters:sRGB">
   <feGaussianBlur id="feGaussianBlur15-3" stdDeviation="1.16"/>
  </filter>
  <filter id="filter910-5" width="1.046" height="1.05" x="-.02" y="-.03" style="color-interpolation-filters:sRGB">
   <feGaussianBlur id="feGaussianBlur12-6" stdDeviation="2.32"/>
  </filter>
  <clipPath id="clipPath1082-3-3675-2">
   <path style="fill:#8c59d9" d="M 361.9375,-212 C 507.2348,-212 528,-191.28677 528,-46.125 V 70.125 C 528,215.28618 507.2348,236 361.9375,236 H 214.0625 C 68.7652,236 48,215.28618 48,70.125 V -46.125 C 48,-191.28677 68.7652,-212 214.0625,-212 Z"/>
  </clipPath>
 </defs>
 <rect style="opacity:0.2" width="56" height="56" x="4" y="4" rx="3" ry="3"/>
 <path style="fill:#fbfbfb" d="M 7 3 C 5.338 3 4 4.338 4 6 L 4 29 L 4 31 L 4 56 C 4 57.662 5.338 59 7 59 L 32 59 L 57 59 C 58.662 59 60 57.662 60 56 L 60 31 L 60 6 C 60 4.338 58.662 3 57 3 L 34 3 L 32 3 L 7 3 z"/>
 <g transform="matrix(1.2044383,0,0,1.2044383,-80.938328,-289.06195)">
  <g style="enable-background:new" transform="matrix(0.12974173,0,0,0.12974173,3.8344818,227.85345)">
   <g transform="translate(468.85725,69.024714)">
    <path style="fill:#82ecb8" d="M 14.117188 3 L 7 3 C 6.169 3 5.4192031 3.3347031 4.8769531 3.8769531 C 4.3347031 4.4192031 4 5.169 4 6 L 4 7.4492188 L 13.953125 7.4492188 L 14.117188 3 z" transform="matrix(6.3993484,0,0,6.3993484,19.540583,24.575535)"/>
    <path style="fill:#4fbab5" d="M 31.960938 3 L 13.900391 3 L 13.953125 7.4492188 L 31.876953 7.4492188 L 31.960938 3 z" transform="matrix(6.3993484,0,0,6.3993484,19.540583,24.575535)"/>
    <path style="fill:#ed4154" d="M 49.908203 3 L 34 3 L 32 3 L 31.921875 3 L 31.876953 7.4492188 L 49.802734 7.4492188 L 49.908203 3 z" transform="matrix(6.3993484,0,0,6.3993484,19.540583,24.575535)"/>
    <path style="fill:#fab649" d="M 60 6 C 60 5.169 59.665297 4.4192031 59.123047 3.8769531 C 58.580797 3.3347031 57.831 3 57 3 L 49.802734 3 L 49.802734 7.4492188 L 60 7.4492188 L 60 6 z" transform="matrix(6.3993484,0,0,6.3993484,19.540583,24.575535)"/>
   </g>
   <g transform="matrix(1.528252,0,0,1.528252,491.43298,109.61275)">
    <g transform="translate(60.915619,58.139761)">
     <path style="clip-rule:evenodd;fill:#f43b53;fill-rule:evenodd" d="M 71.210426,62.665906 C 70.786457,62.272034 70.464555,61.981537 70.151813,61.68188 60.014517,51.943691 49.888998,42.193724 39.737308,32.471238 35.08674,28.018261 27.949937,28.181829 23.519205,32.785289 c -4.363997,4.534106 -4.303804,11.715399 0.285263,16.150057 13.1548,12.708587 26.347547,25.379225 39.562541,38.02631 4.403252,4.213514 11.182823,4.170332 15.648886,0.01047 1.78878,-1.665777 3.533072,-3.378662 5.295682,-5.073228 11.29928,-10.859612 22.592023,-21.727076 33.903083,-32.573603 2.71785,-2.606621 4.14155,-5.75498 3.78432,-9.503961 -0.45407,-4.767026 -2.96778,-8.198031 -7.48095,-9.841563 -4.49878,-1.638298 -8.5906,-0.649038 -12.06217,2.666814 -5.6817,5.426534 -11.337233,10.883165 -17.003233,16.32802 -4.714687,4.53149 -9.431991,9.066906 -14.242201,13.691303 z m -0.02879,-76.471352 c 22.766061,0 45.532124,-0.0065 68.298184,0.0039 7.05437,0.0039 13.11817,4.5550441 14.87554,11.168429 0.27741,1.044219 0.45145,2.149939 0.45276,3.22818 0.0105,17.788358 0.0981,35.578023 -0.0628,53.36507 -0.16357,18.173069 -5.66077,34.62671 -16.84752,48.993227 -12.44819,15.98913 -28.50273,26.51899 -48.289233,31.09236 C 44.175892,144.54417 0.77539,115.22099 -9.937667,74.179791 -11.365289,68.708765 -12.338846,63.15661 -12.385954,57.506314 -12.542979,38.583449 -12.660748,19.660586 -12.652897,0.739028 c 0.0039,-7.965112 7.109324,-14.534006 15.4054977,-14.540549 22.8092423,-0.01439 45.6197943,-0.0039 68.4290383,-0.0039 z"/>
    </g>
   </g>
  </g>
 </g>
 <path style="opacity:0.2;fill:#ffffff" d="M 7 3 C 5.338 3 4 4.338 4 6 L 4 7 C 4 5.338 5.338 4 7 4 L 57 4 C 58.662 4 60 5.338 60 7 L 60 6 C 60 4.338 58.662 3 57 3 L 7 3 z"/>
</svg>
